X:242
T:Hélas, mon cueur n'est pas à moy, (Chanson 17)
S:from bay17.MID
C:Manuscript de Bayeux (fin XVe)
R:Chanson
M:4/4
L:1/8
Q:1/4=120
K:F 
V:1
F2 FG A2 A2 | B4 A2 F2 | G2 E2 F2 D2 | C4 F2 FG | 
A2 A2 B4 | AF G2 F4 | c3c A2 A2 | B2 B2 A4 | 
A2 B2 G2 F2 | G2 G2 F4 | c3c A2 A2 | B2 B2 A4 | 
A2 B2 G2 F2 | G2 G2 F4 | F2 FG A2 A2 | B4 A2 F2 | G4 F4 |]





